!!!COM: Music21
!!!OTL: hornpipe_Big-Dan-OMahony
!!!OMV: hornpipe_Big-Dan-OMahony
**kern
*clefG2
*k[f#c#]
*M4/4
=1
8gL
8bJ
=
8aL
8gJ
8aL
8bJ
4a
8bL
8ddJ
=
8eeL
8ddJ
8bL
8aJ
4g
8bL
8ddJ
=
4ee
8eeL
8ff#J
8ggL
8ff#J
8eeL
8aaJ
=
8eeL
8ddJ
8bL
8aJ
4.g
8b
=
8aL
8gJ
8aL
8bJ
4a
8bL
8ddJ
!!linebreak:original
=
8eeL
8ddJ
8bL
8aJ
4g
8eeL
8ddJ
=
4b
8aL
8gJ
8ggL
8ddJ
8bL
8ddJ
=
4cc#X
4a
4a
4ryy
=||
*M4/4
8gL
8bJ
=
8aL
8gJ
8aL
8bJ
4a
8bL
8ddJ
=
8eeL
8ddJ
8bL
8aJ
4g
8bL
8ddJ
!!linebreak:original
=
4ee
8eeL
8ff#J
8ggL
8ff#J
8eeL
8aaJ
=
8eeL
8ddJ
8bL
8aJ
4.g
8b
=
8aL
8gJ
8aL
8bJ
4a
8bL
8ddJ
=
8eeL
8ddJ
8bL
8aJ
4g
8eeL
8ddJ
=
4b
8aL
8gJ
8ggL
8ddJ
8bL
8ddJ
=
4cc#X
4a
4a
4ryy
!!linebreak:original
=||
8bL
8ddJ
2.ryy
=
4ee
8eeL
8ff#J
4gg
8ff#L
8eeJ
=
4aa
4aa
4gg
8eeL
8aaJ
=
8eeL
8ddJ
8eeL
8ff#J
8ggL
8ff#J
8eeL
8aaJ
=
8eeL
8ddJ
8bL
8aJ
4g
8bL
8ddJ
=
4ee
8eeL
8ff#J
8ggL
8ff#J
8ggL
8eeJ
!!linebreak:original
=
8aaL
8bbJ
8aaL
8ggJ
4ee
8eeL
8aaJ
=
8ggL
8eeJ
8ddL
8ggJ
8eeL
8ddJ
8bL
8ddJ
=
4cc#X
8aL
8aJ
4a
8bL
8ddJ
=
4ee
8eeL
8ff#J
8ggL
8ff#J
8ggL
8eeJ
=
12aaL
12bb
12aaJ
8aaL
8ggJ
4ee
8eeL
8aaJ
!!linebreak:original
=
8eeL
8ddJ
8eeL
8ff#J
8ggL
8ff#J
8eeL
8aaJ
=
8eeL
8ddJ
8bL
8aJ
4g
8aL
8bJ
=
4cc#X
8bL
8cc#J
4dd
8cc#L
8ddJ
=
8eeL
8ff#J
8ggL
8eeJ
4aa
4aa
=
8ggL
8ff#J
8eeL
8aaJ
8eeL
8ddJ
8bL
8ddJ
=
4cc#X
4a
4a
4ryy
=||
*-
